dist/assets/images/producersColor/Vinci_logo 5.svg

<svg width="161" height="42" viewBox="0 0 161 42" fill="none" xmlns="http://www.w3.org/2000/svg">
<path d="M71.3086 15.6228V28.7448C71.3086 28.7448 76.0551 29.933 83.4851 29.933C90.8588 29.933 95.6571 28.7495 95.6571 28.7495V24.2903C95.6571 24.2903 90.5017 25.3128 83.4335 25.3128C80.0028 25.3128 77.7282 24.9057 76.5063 24.7826C76.5063 23.7081 76.5097 20.6737 76.5063 19.5897C77.8739 19.4524 80.1766 19.0547 83.4851 19.0547C90.3653 19.0833 95.6571 20.1104 95.6571 20.1104V15.618C95.6571 15.618 90.934 14.4346 83.4851 14.4346C75.9799 14.4346 71.3086 15.6228 71.3086 15.6228Z" fill="#19458F"/>
<path d="M101.438 29.6394H106.767V14.6807H101.438V29.6394Z" fill="#19458F"/>
<path d="M30.1094 29.6394H35.4387V14.6807H30.1094V29.6394Z" fill="#19458F"/>
<path d="M60.2461 29.6347C60.2461 29.6347 56.3924 26.4962 50.7247 23.5376C49.1457 22.7139 47.811 22.1648 46.5703 21.6583V29.6347H41.4102V14.7091C41.4102 14.7091 45.7761 15.5611 50.7342 18.1505C56.4018 21.1091 60.2508 23.9778 60.2508 23.9778V14.6807H65.4251V29.6347H60.2461Z" fill="#19458F"/>
<path d="M26.5484 18.07L13.3285 30.037L0.0898438 18.0605L4.04689 14.4297C4.04689 14.4297 12.1348 22.2688 13.3285 23.3907C14.5222 22.2688 22.6055 14.4297 22.6055 14.4297L26.5484 18.07Z" fill="#19458F"/>
<path d="M118.793 14.6898H126.214C128.921 14.685 130.622 13.2981 131.247 12.6353C131.877 11.9726 133.333 10.3158 133.333 8.38913C133.333 8.37951 133.333 2.17368 133.333 2.17368C133.333 1.02337 134.259 0.0908203 135.401 0.0908203H143.447C144.589 0.0908203 145.515 1.02337 145.515 2.17841V10.2826C145.515 11.433 144.589 12.3655 143.447 12.3655C143.447 12.3655 137.286 12.3655 137.276 12.3655C135.364 12.3655 133.719 13.833 133.061 14.4673C132.403 15.0969 131.026 16.8105 131.021 19.5372V27.0118H118.793V14.6898Z" fill="#EB172B"/>
<path d="M160.909 21.241C160.909 19.2623 160.115 17.4918 158.851 16.2043C157.587 14.9119 155.81 14.1309 153.846 14.1309C149.828 14.1309 146.622 17.4303 146.622 21.3641C146.622 22.0836 146.933 23.4469 146.933 24.0292C146.933 27.1251 144.437 29.6387 141.364 29.6387H135.4C134.258 29.6387 133.332 30.5665 133.332 31.7216V39.8258C133.332 40.9761 134.258 41.9087 135.4 41.9087H143.446C144.588 41.9087 145.513 40.9761 145.513 39.8258V33.8187C145.513 30.718 148.009 28.2091 151.082 28.2091C151.66 28.2091 153.014 28.5216 153.723 28.5216C157.634 28.5216 160.909 25.2931 160.909 21.241Z" fill="#EB172B"/>
</svg>

<svg width="161" height="42" fill="none" xmlns="http://www.w3.org/2000/svg"><path d="M71.309 15.623v13.122s4.746 1.188 12.176 1.188c7.374 0 12.172-1.183 12.172-1.183v-4.46s-5.155 1.023-12.224 1.023c-3.43 0-5.705-.407-6.927-.53 0-1.075.004-4.11 0-5.193 1.368-.138 3.67-.535 6.98-.535 6.88.028 12.171 1.055 12.171 1.055v-4.492s-4.723-1.183-12.172-1.183c-7.505 0-12.176 1.188-12.176 1.188zm30.129 14.017h5.329V14.68h-5.329v14.96zm-71.328 0h5.329V14.68h-5.33v14.96zm30.136-.005s-3.854-3.139-9.521-6.097c-1.58-.824-2.914-1.373-4.155-1.88v7.977h-5.16V14.709s4.366.852 9.324 3.442c5.668 2.958 9.517 5.827 9.517 5.827V14.68h5.174v14.954h-5.179zM26.548 18.07l-13.22 11.967L.09 18.061l3.957-3.631s8.088 7.839 9.282 8.96c1.193-1.121 9.276-8.96 9.276-8.96l3.943 3.64z" fill="#19458F"/><path d="M118.793 14.69h7.421c2.707-.005 4.408-1.392 5.033-2.055.63-.662 2.086-2.32 2.086-4.246V2.174c0-1.15.926-2.083 2.068-2.083h8.046c1.142 0 2.068.932 2.068 2.087v8.105c0 1.15-.926 2.083-2.068 2.083h-6.171c-1.912 0-3.557 1.467-4.215 2.101-.658.63-2.035 2.344-2.04 5.07v7.475h-12.228V14.69zm42.116 6.551c0-1.979-.794-3.75-2.058-5.037-1.264-1.292-3.041-2.073-5.005-2.073-4.018 0-7.224 3.3-7.224 7.233 0 .72.311 2.083.311 2.665 0 3.096-2.496 5.61-5.569 5.61H135.4a2.073 2.073 0 00-2.068 2.083v8.104c0 1.15.926 2.083 2.068 2.083h8.046a2.075 2.075 0 002.067-2.083v-6.007c0-3.101 2.496-5.61 5.569-5.61.578 0 1.932.313 2.641.313 3.911 0 7.186-3.229 7.186-7.281z" fill="#EB172B"/></svg>
